X:266
T: TRAURIG SEHEN WIR UNS AN
N: B0315
O: Europa, Mitteleuropa, Deutschland
R: Geselligkeits - Lied, Freundschaft, Abschied
M: 3/4
L: 1/16
K: G
 | G2D2G4B4 | AGFGA6z2 |
B2c2d4e4 | d2c2B4z4 |
d2A2A6B2 | dccBB4A4 |
d2A2A6B2 | dccBB4A4 |
B3AG4A2G2 | G2F2G4z4

@@@ Tune index: 2069
